app/dist/common/images/weststar-industrial-limited.svg

<svg height="18" viewBox="0 0 18 18" width="18" xmlns="http://www.w3.org/2000/svg"><path d="m0 0h18v18h-18z" fill="#f0f3fa"/><g fill="#1a417a"><path d="m3 5v.35c.6 0 .75.23.75.34l3.25 8.31 1.55-3.84 1.45 3.84 2-4.5h-.4l-1.11 2.5c-.35-.9-.86-2.33-1.3-3.53l1.29-3.47h-.38l-1.1 2.94a22.66 22.66 0 0 1 -.76-2.25c0-.27.52-.34.77-.34v-.35zm3.74.7 1.6 3.96-.84 2.34c-.75-1.96-2.26-6.03-2.26-6.3 0-.28.5-.35.75-.35.51 0 .75.23.75.34z"/><path d="m11.86 5c-1.16 0-1.86.78-1.86 1.74 0 .97.68 1.58 1.47 2.17.75.55 1.2 1.04 1.2 1.92 0 .68-.38.92-.98.92l-.36.01v.24c.12.02.48 0 .62 0 .76 0 1.41-.28 1.78-.82.18-.28.27-.63.27-1.03 0-.94-.64-1.56-1.4-2.14-.47-.37-1.05-.7-1.3-1.22-.3-.58-.11-1.55.78-1.55.55 0 1.24.5 1.46 1.13.12.31.16.63.19.97h.27v-2.34h-.2c-.02.15-.05.43-.07.5-.03.06-.07.09-.12.09a.29.29 0 0 1 -.12-.04 3.54 3.54 0 0 0 -1.63-.55zm1.14 7 .24.76h.76l-.62.48.24.76-.62-.47-.62.47.24-.76-.62-.48h.76z"/></g></svg>

<!-- by TradingView --><svg width="18" height="18" viewBox="0 0 18 18" xmlns="http://www.w3.org/2000/svg"><path fill="#F0F3FA" d="M0 0h18v18H0z"/><path d="M3 5v.35c.6 0 .75.23.75.34L7 14l1.55-3.84L10 14l2-4.5h-.4L10.49 12c-.35-.9-.86-2.33-1.3-3.53L10.48 5h-.38L9 7.94a22.66 22.66 0 0 1-.76-2.25c0-.27.52-.34.77-.34V5H3Zm3.74.7 1.6 3.96L7.5 12c-.75-1.96-2.26-6.03-2.26-6.3 0-.28.5-.35.75-.35.51 0 .75.23.75.34Z" fill="#1A417A"/><path d="M11.86 5C10.7 5 10 5.78 10 6.74c0 .97.68 1.58 1.47 2.17.75.55 1.2 1.04 1.2 1.92 0 .68-.38.92-.98.92l-.36.01V12c.12.02.48 0 .62 0 .76 0 1.41-.28 1.78-.82.18-.28.27-.63.27-1.03 0-.94-.64-1.56-1.4-2.14-.47-.37-1.05-.7-1.3-1.22-.3-.58-.11-1.55.78-1.55.55 0 1.24.5 1.46 1.13.12.31.16.63.19.97H14V5h-.2c-.02.15-.05.43-.07.5-.03.06-.07.09-.12.09a.29.29 0 0 1-.12-.04A3.54 3.54 0 0 0 11.86 5ZM13 12l.24.76H14l-.62.48.24.76-.62-.47-.62.47.24-.76-.62-.48h.76L13 12Z" fill="#1A417A"/></svg>
